brandFactory_export/1.Light/Miembros_1Light.svg

<?xml version="1.0" encoding="UTF-8"?>
<svg width="24px" height="24px" viewBox="0 0 24 24" version="1.1" xmlns="http://www.w3.org/2000/svg" xmlns:xlink="http://www.w3.org/1999/xlink">
    <title>1.Light/Miembros_1Light</title>
    <g id="Symbols" stroke="none" stroke-width="1" fill="none" fill-rule="evenodd">
        <g id="1.Light/Miembros_1Light" fill="#5CB615" fill-rule="nonzero">
            <path d="M9.05882353,4.87563025 C8.43361345,5.48739496 8.11764706,6.44201681 8.11764706,7.71260504 C8.11764706,8.97983193 8.43361345,9.93445378 9.05882353,10.5428571 C9.6605042,11.1344538 10.5781513,11.4336134 11.7815126,11.4336134 C12.9848739,11.4336134 13.902521,11.1344538 14.5109244,10.5428571 C15.1394958,9.93109244 15.4554622,8.97983193 15.4554622,7.71260504 C15.4554622,6.44537815 15.1394958,5.4907563 14.5109244,4.87563025 C13.902521,4.28067227 12.9848739,3.98151261 11.7848739,3.98151261 C10.5781513,3.98151261 9.6605042,4.28067227 9.05882353,4.87563025 Z M11.7815126,12.3882353 C10.3260504,12.3882353 9.18991597,11.9983193 8.40672269,11.2319328 C7.59327731,10.4352941 7.17983193,9.25210084 7.17983193,7.71260504 C7.17983193,6.17647059 7.59327731,4.98655462 8.40672269,4.18991597 C9.19327731,3.41680672 10.3294118,3.02352941 11.7815126,3.02352941 C13.2336134,3.02352941 14.3731092,3.41680672 15.1630252,4.18655462 C15.9831933,4.98655462 16.4,6.17310924 16.4,7.71260504 C16.4,9.25210084 15.9831933,10.4352941 15.1630252,11.2319328 C14.3731092,12.0016807 13.2369748,12.3882353 11.7815126,12.3882353 Z M3.73109244,10.8084034 C3.4789916,11.0537815 3.3512605,11.4672269 3.3512605,12.0319328 C3.3512605,12.5966387 3.4789916,13.0067227 3.72773109,13.2521008 C3.9697479,13.4907563 4.36638655,13.6117647 4.90084034,13.6117647 C5.43865546,13.6117647 5.83529412,13.4907563 6.08067227,13.2521008 C6.33277311,13.0067227 6.4605042,12.5966387 6.4605042,12.0352941 C6.4605042,11.4705882 6.33277311,11.0605042 6.08067227,10.8151261 C5.83529412,10.5764706 5.43865546,10.4521008 4.90084034,10.4521008 C4.3697479,10.4487395 3.97647059,10.5697479 3.73109244,10.8084034 L3.73109244,10.8084034 Z M4.90420168,14.5663866 C4.11764706,14.5663866 3.50252101,14.3546218 3.07563025,13.9411765 C2.63529412,13.507563 2.41008403,12.8655462 2.41008403,12.0319328 C2.41008403,11.1983193 2.63529412,10.5563025 3.07563025,10.1226891 C3.50252101,9.70588235 4.11764706,9.4907563 4.90420168,9.4907563 C5.69411765,9.4907563 6.3092437,9.70252101 6.73613445,10.1193277 C7.17983193,10.5529412 7.40504202,11.1983193 7.40504202,12.0285714 C7.40504202,12.8621849 7.17983193,13.5042017 6.73613445,13.9378151 C6.31260504,14.3546218 5.69411765,14.5663866 4.90420168,14.5663866 L4.90420168,14.5663866 Z M17.5428571,10.7915966 C17.2907563,11.0369748 17.1630252,11.4504202 17.1630252,12.0151261 C17.1630252,12.5764706 17.2907563,12.9865546 17.5428571,13.2319328 C17.7882353,13.4705882 18.1848739,13.5915966 18.7226891,13.5915966 C19.2605042,13.5915966 19.6537815,13.4705882 19.8991597,13.2319328 C20.1478992,12.9865546 20.2756303,12.5764706 20.2756303,12.0151261 C20.2756303,11.4504202 20.1478992,11.0403361 19.8957983,10.7915966 C19.6537815,10.5529412 19.2571429,10.4319328 18.7226891,10.4319328 C18.1848739,10.4319328 17.7882353,10.5529412 17.5428571,10.7915966 L17.5428571,10.7915966 Z M16.8907563,13.9243697 C16.4470588,13.4907563 16.2218487,12.8487395 16.2218487,12.0151261 C16.2218487,11.1815126 16.4470588,10.5394958 16.8907563,10.1058824 C17.3176471,9.68571429 17.9327731,9.47394958 18.7226891,9.47394958 C19.512605,9.47394958 20.1277311,9.68571429 20.5546218,10.102521 C20.994958,10.5361345 21.2201681,11.1815126 21.2201681,12.0151261 C21.2201681,12.8453782 20.9983193,13.487395 20.5546218,13.9210084 C20.1277311,14.3378151 19.512605,14.5462579 18.7226891,14.5462579 C17.9327731,14.5495798 17.3176471,14.3378151 16.8907563,13.9243697 L16.8907563,13.9243697 Z M22.6823529,19.1344538 L22.6823529,18.4756303 C22.6823529,17.7966387 22.4840336,17.2218487 22.097479,16.8184874 C21.6739496,16.3680672 21.0319328,16.1394958 20.2420168,16.1394958 L18.7932773,16.1394958 C19.4689076,16.9226891 19.8655462,17.9478992 19.9529412,19.1344538 L22.6823529,19.1344538 Z M19.0285714,20.7680672 L19.0285714,19.6386555 C19.0285714,18.405042 18.6621849,17.3630252 17.9663866,16.6235294 C17.2033613,15.8201681 16.0336134,15.389916 14.5848739,15.389916 L8.97142857,15.389916 C7.52268908,15.389916 6.36302521,15.8201681 5.6,16.6235294 C4.90420168,17.3596639 4.53781513,18.4016807 4.53781513,19.6386555 L4.53781513,20.7680672 L19.0285714,20.7680672 Z M3.61680672,19.1546218 C3.70084034,17.9680672 4.0907563,16.9428571 4.76638655,16.1596639 L3.38151261,16.1596639 C2.59159664,16.1596639 1.94957983,16.3915966 1.52605042,16.8386555 C1.14957983,17.2386555 0.941176471,17.8134454 0.941176471,18.492437 L0.941176471,19.1546218 L3.61680672,19.1546218 L3.61680672,19.1546218 Z M22.7764706,16.1596639 C23.3310924,16.7445378 23.6235544,17.5478992 23.6235544,18.4756303 L23.6235544,19.3260504 C23.6268908,19.7462185 23.2907563,20.0857143 22.8705882,20.092437 L19.9697479,20.092437 L19.9697479,21.2016807 C19.9697479,21.4941176 19.7344538,21.7294118 19.4420168,21.7294118 L4.12436975,21.7294118 C3.83529412,21.7294118 3.6,21.4941176 3.59663866,21.2016807 L3.59663866,20.1092437 L0.76302521,20.1092437 C0.339495798,20.1058824 -0.00336134454,19.7630252 -2.45062714e-05,19.3394958 L-2.45062714e-05,18.492437 C-2.45062714e-05,17.5647059 0.292436975,16.7613445 0.847058824,16.1663866 C1.45210084,15.5378151 2.32605042,15.2016807 3.38151261,15.2016807 L5.89579832,15.2016807 C6.73277311,14.6941176 7.77815126,14.4352941 8.97478992,14.4352941 L14.5882353,14.4352941 C15.7747899,14.4352941 16.810084,14.6840336 17.6470588,15.1815126 L20.2453782,15.1815126 C21.297479,15.1848739 22.1714286,15.5176471 22.7764706,16.1596639 Z" id="Miembros_1Light"></path>
        </g>
    </g>
</svg>

<svg width="24" height="24" viewBox="0 0 24 24" xmlns="http://www.w3.org/2000/svg"><path d="M9.059 4.876c-.625.611-.941 1.566-.941 2.837 0 1.267.316 2.221.94 2.83.603.591 1.52.89 2.724.89 1.203 0 2.12-.299 2.729-.89.628-.612.944-1.563.944-2.83 0-1.268-.316-2.222-.944-2.837-.608-.595-1.526-.894-2.726-.894-1.207 0-2.124.299-2.726.894zm2.723 7.512c-1.456 0-2.592-.39-3.375-1.156-.814-.797-1.227-1.98-1.227-3.52 0-1.536.413-2.725 1.227-3.522.786-.773 1.922-1.166 3.375-1.166 1.452 0 2.591.393 3.381 1.163.82.8 1.237 1.986 1.237 3.526 0 1.54-.417 2.722-1.237 3.519-.79.77-1.926 1.156-3.381 1.156zm-8.05-1.58c-.253.246-.38.66-.38 1.224 0 .565.127.975.376 1.22.242.239.638.36 1.173.36.538 0 .934-.121 1.18-.36.252-.245.38-.655.38-1.217 0-.564-.128-.974-.38-1.22-.246-.239-.642-.363-1.18-.363-.531-.003-.925.118-1.17.356zm1.172 3.758c-.786 0-1.401-.211-1.828-.625-.44-.433-.666-1.075-.666-1.91 0-.833.225-1.475.666-1.908.427-.417 1.042-.632 1.828-.632.79 0 1.405.212 1.832.628.444.434.669 1.08.669 1.91 0 .833-.225 1.475-.669 1.909-.423.417-1.042.628-1.832.628zm12.639-3.774c-.252.245-.38.658-.38 1.223 0 .561.128.972.38 1.217.245.239.642.36 1.18.36.538 0 .93-.121 1.176-.36.249-.245.377-.656.377-1.217 0-.565-.128-.975-.38-1.223-.242-.24-.639-.36-1.173-.36-.538 0-.935.12-1.18.36zm-.652 3.132c-.444-.433-.67-1.075-.67-1.909 0-.833.226-1.476.67-1.91.427-.42 1.042-.631 1.832-.631s1.405.212 1.832.629c.44.433.665 1.079.665 1.912 0 .83-.222 1.472-.665 1.906-.427.417-1.042.625-1.832.625-.79.004-1.405-.208-1.832-.622zm5.791 5.21v-.658c0-.68-.198-1.254-.585-1.658-.423-.45-1.065-.679-1.855-.679h-1.449c.676.784 1.073 1.809 1.16 2.995h2.73zm-3.653 1.634v-1.13c0-1.233-.367-2.275-1.063-3.014-.763-.804-1.932-1.234-3.381-1.234H8.97c-1.448 0-2.608.43-3.371 1.234-.696.736-1.062 1.778-1.062 3.015v1.13h14.49zM3.617 19.155c.084-1.187.474-2.212 1.15-2.995H3.381c-.79 0-1.432.232-1.856.679-.376.4-.585.974-.585 1.653v.663h2.676zm19.16-2.995c.554.585.847 1.388.847 2.316v.85a.761.761 0 01-.753.766H19.97v1.11a.526.526 0 01-.528.527H4.124a.53.53 0 01-.527-.527v-1.093H.763A.766.766 0 010 19.34v-.847c0-.927.292-1.73.847-2.326.605-.628 1.48-.964 2.535-.964h2.514c.837-.508 1.882-.767 3.079-.767h5.613c1.187 0 2.222.249 3.06.747h2.597c1.052.003 1.926.336 2.531.978z" fill="#5CB615" fill-rule="nonzero"/></svg>
